X: 2074
T: Âşıkım Ben Gül Yüzüne
C: Necdet Tokatlıoğlu
O: Turkey
F: http://compmusic.upf.edu/node/140
N: acemkurdi--sarki--semai--asikim_ben--necdet_tokatlioglu
N: makam= acemkurdi
N: form= sarki
N: usul= semai = 3/4
M: 3/4
L: 1/16
K: C _B   
Q: 1/4=141
%%MIDI tuningsystem comma53
f4 e4 g4  | e8 d4  | f6e2 d4  | c8 z4  | A6B2 d4  | c12  | \
w:  ARANAĞME  |   |   |   |   |   | 
d6c2 B4  | A12  | f4 e4 g4  | 
w:   |   |  ARANAĞME  | 
e8 d4  | f6e2 d4  | c8 z4  | A6B2 d4  | c12  | \
w:   |   |   |   |   | 
d6c2 B4  | A12  | f4 e4 f4  | e12  | d6e2 d4  | 
w:   |   |  Â şı kım   |  ben   |  gül  yü zü  | 
c12  | c4 d4 e4  | f12  | g6f2 e4  | f12  | f4 e4 f4  | e12  | \
w:  ne    |  Sev da  sa  |  çan   |  göz le ri  |  ne    |  Â şı kım   |  ben   | 
d6e2 d4  | c12  | c4 d4 e4  | f12  | 
w:  gül  yü zü  |  ne    |  Sev da  sa  |  çan   | 
g6f2 e4  | f12  | e4 f4 g4  | e8 d4  | f6e2 d4  | c12  | \
w:  göz le ri  |  ne    |  Na sıl  kan  |  dım   |  söz le ri  |  ne    | 
A4 B4 d4  | c12  | A4 B6G2  | A12  | 
w:  Ni ye  sev  |  dim   |  za lim  se  |  ni    | 
e4 f4 g4  | e8 d4  | f6e2 d4  | c12  | A4 B4 d4  | c12  | \
w:  Na sıl  kan  |  dım   |  söz le ri  |  ne    |  Ni ye  sev  |  dim   | 
A4 B6G2  | A12  | f4 e4 g4  | e8 d4  | 
w:  za lim  se  |  ni    |  Se vi yo  |  rum   | 
f6e2 d4  | c12  | A6B2 d4  | c12  | d6c2 B4  | A12  | \
w:  öz lü yo  |  rum    |  Yol la rı  |  nı   |  göz lü yo  |  rum    | 
e4 f4 g4  | e8 d4  | f6e2 d4  | c12  | 
w:  Na sıl  kan  |  dım   |  söz le ri  |  ne    | 
A4 B4 d4  | c12  | A4 B6G2  | A12  | e4 f4 g4  | \
w:  Ni ye  sev  |  dim   |  za lim  se  |  ni    |  Na sıl  kan  | 
e8 d4  | f6e2 d4  | c12  | A4 B4 d4  | c12  | 
w:  dım   |  söz le ri  |  ne    |  Ni ye  sev  |  dim   | 
A4 B6G2  | A12  | f4 e4 g4  | e8 d4  | f6e2 d4  | c12  | \
w:  za lim  se  |  ni    |  Se vi yo  |  rum   |  öz lü yo  |  rum    | 
A6B2 d4  | c12  | d6c2 B4  | A12  | 
w:  Yol la rı  |  nı   |  göz lü yo  |  rum    | 
f4 e4 g4  | e8 d4  | f6e2 d4  | c8 z4  | A6B2 d4  | c12  | \
w:  ARANAĞME  |   |   |   |   |   | 
d6c2 B4  | A12  | f4 e4 g4  | 
w:   |   |  ARANAĞME  | 
e8 d4  | f6e2 d4  | c8 z4  | A6B2 d4  | c12  | \
w:   |   |   |   |   | 
d6c2 B4  | A12  | f4 e4 f4  | e12  | d6e2 d4  | 
w:   |   |  Â şı kım   |  ben   |  gül  yü zü  | 
c12  | c4 d4 e4  | f12  | g6f2 e4  | f12  | f4 e4 f4  | e12  | \
w:  ne    |  Sev da  sa  |  çan   |  göz le ri  |  ne    |  Â şı kım   |  ben   | 
d6e2 d4  | c12  | c4 d4 e4  | f12  | 
w:  gül  yü zü  |  ne    |  Sev da  sa  |  çan   | 
g6f2 e4  | f12  | e4 f4 g4  | e8 d4  | f6e2 d4  | c12  | \
w:  göz le ri  |  ne    |  Na sıl  kan  |  dım   |  söz le ri  |  ne    | 
A4 B4 d4  | c12  | A4 B6G2  | A12  | 
w:  Ni ye  sev  |  dim   |  za lim  se  |  ni    | 
e4 f4 g4  | e8 d4  | f6e2 d4  | c12  | A4 B4 d4  | c12  | \
w:  Na sıl  kan  |  dım   |  söz le ri  |  ne    |  Ni ye  sev  |  dim   | 
A4 B6G2  | A12  | f4 e4 g4  | e8 d4  | 
w:  za lim  se  |  ni    |  Se vi yo  |  rum   | 
f6e2 d4  | c12  | A6B2 d4  | c12  | d6c2 B4  | A12  | \
w:  öz lü yo  |  rum    |  Yol la rı  |  nı   |  göz lü yo  |  rum    | 
e4 f4 g4  | e8 d4  | f6e2 d4  | c12  | 
w:  Na sıl  kan  |  dım   |  söz le ri  |  ne    | 
A4 B4 d4  | c12  | A4 B6G2  | A12  | e4 f4 g4  | \
w:  Ni ye  sev  |  dim   |  za lim  se  |  ni    |  Na sıl  kan  | 
e8 d4  | f6e2 d4  | c12  | A4 B4 d4  | c12  | 
w:  dım   |  söz le ri  |  ne    |  Ni ye  sev  |  dim   | 
A4 B6G2  | A12  | f4 e4 g4  | e8 d4  | f6e2 d4  | c12  | \
w:  za lim  se  |  ni    |  Se vi yo  |  rum   |  öz lü yo  |  rum    | 
A6B2 d4  | c12  | d6c2 B4  | A12  | 
w:  Yol la rı  |  nı   |  göz lü yo  |  rum    | 
|


